X:1
T:6 Lieder, Op.13
T:Ich hab' in Deinem Auge
T:6 Lieder, Op.13
T:5. Ich hab' in Deinem Auge
T:Clara Schumann
T:Friedrich Rückert
T:OpenScore (CC0)
T:OpenScore (CC0)
T:OpenScore (CC0)
C:Clara Schumann
Z:Friedrich Rückert
Z:OpenScore (CC0)
%%score 1 { ( 2 4 ) | ( 3 5 6 ) }
L:1/8
Q:1/4=65
M:3/4
K:Ab
V:1 treble nm="Voice"
V:2 treble nm="Piano"
V:4 treble 
V:3 bass 
V:5 bass 
V:6 bass 
V:1
"^Langsam" z z!p! e | A3!<(! B c d!<)! | d2 c!>(! c A B!>)! | %3
w: Ich|hab' in Dei- nem|Au- ge den Strahl der|
!<(! c =d/ d/!<)!!>(! f2!>)!!>(! e d!>)! | =d2 e z z e | A3 B c d | d2 c c B A | G G/ G/ A3 F | %8
w: e- wi- gen Lie- be ge-|se- hen, ich|sah' auf Dei- nen|Wan- gen ein- mal die|Ro- sen des Him- mels|
 E4 z2 | z6 | z6 | z6 | z2 z d c =B | (=B2 c) _B B =A |!>(! (=A2 B)!>)! B!>(! B _A | _A2!>)! G3 F | %16
w: stehn.||||Und wie der|Strahl _ im Aug' er-|lischt _ und wie die|Ro- sen zer-|
 F2 =E z z[Q:1/4=70] E | F[Q:1/4=75]"^animato" =G A[Q:1/4=77] =A B[Q:1/4=79] c | d4 d2 | %19
w: stie- ben, ihr|Ab- glanz e- wig neu er-|frischt, ist|
 d d[Q:1/4=80]"^ritardando" f2[Q:1/4=7416] e d |[Q:1/4=70] c2[Q:1/4=65]"^a tempo" B c d e | %21
w: mir im Her- zen ge-|blie- ben und nie- mals|
[Q:1/4=70]"^animato" A2[Q:1/4=75] A B c d | (d2 c) z z B |!<(! c =d f2!<)!!>(! e d | %24
w: werd' ich die Wan- gen|sehn _ und|nie in's Au- ge Dir|
 =d2!>)! e c"^*" !courtesy!_d e | A2 A B E G | A2-[Q:1/4=72]"^ritenuto" A A[Q:1/4=70] A d | %27
w: bli- cken, so wer- den|sie mir in Ro- sen|stehn _ und es den|
[Q:1/4=68] c c c2- (cB) | A4 z2 | z6 | z6[Q:1/4=65] | z6[Q:1/4=62] | z6 | !fermata!z6 |] %34
w: Strahl mir schik- * *|ken.||||||
V:2
!p! ([Ac][Gd][_Ge]) | A3!<(! [_D_FG][CFG][B,FG]!<)! | [B,_FG]2 [CEA]!>(! [Ec][EA][EB]!>)! | %3
!<(! [Fc][FA=d]!<)!!>(! f2 ed!>)! | ([A=d]2 [Ge]) ([Ac][G_d][_Ge]) | A3 [_D_FG][CFG][B,FG] | %6
 [B,_FG]2 [CEA] ([Ec][EB][EA] | [EG]2)!p! [CEA]2 [A,=DF]2 | [G,B,E]2 z [EF][EG][EFA] | %9
!<(! [DGB][EAc] [EBd]2 [E_c=d]2!<)! |!>(! [EGBe]2!>)! z!<(! [EF][EG][EFA] | %11
 [EGB]!<)![EAc] [EBd]!<(! =d!>(!a!<)!d!>)! |{/=d} f2 [Ge]!mf! [A_d][G=c][F=B] | %13
 z!<(! [F=B][Ec][_GB]!<)!!>(![FB][E=A]!>)! |!<(! z [E=A][DB]!<)!!>(! [DB][DB][C_A]!>)! | %15
 _A2 G2 G>F | F2 =E2 [_B,E][B,E] | [A,F][_FG][EA][_G=A][=FB][Fc] | d4 [Fd][Fd] | %19
 [Ed][Ed] [Fd][Fd][Fd][Fd] | [Ed][Ed][Ed]([Ac][Gd][_Ge]) | A3 [_D_FG][CFG][B,FG] | %22
 [B,_FG]2 [CEA] [Ec][EA][EB] | [Ec][FA=d] f2 ed | [A=d]2 [Ge] ([Ac][G_d][_Ge]) | A3 [_DB][CE][DG] | %26
 [EA] [E_GA][DFA][CEA][B,DA][Fd] | [Ec-]4 cB | [CA]!p! z z ([Ac][ABd][Ace] | %29
!<(! [Adf][Aeg] [Afa]2!<)! [Bb]2) | [eae']3 (c'a"^ritard."e | cA!>(!EC- [A,C]2-)!>)! | [A,C]6- | %33
 !fermata![A,C]6 |] %34
V:3
 (A,B,C) | [A,,,A,,]6- | [A,,,A,,]2 x A,F,G, | x2 =D2 EF | [_CF]2 [B,E] x2 x | [A,,,A,,]6- | %6
 [A,,,A,,]3 (A,G,C | B,2) [B,,,B,,]2 [B,,,B,,]2 | [E,,,E,,]2 E,[E,=D][E,_D][E,C] | %9
 [E,B,D][E,A,C] [E,G,B,]2 [E,F,A,]2 | E,,E, E,[E,=D][E,_D][E,C] | %11
 [E,B,D][E,A,C] [E,G,B,] [A,_C]2 [A,C] | E,,[_C=D] [E,B,E] [F,F][G,E][G,D] | %13
 C,[G,=D][G,C] [E,E][F,_D][F,C] | B,,[F,C][F,B,] [B,,F,][B,,F,][C,F,] | B,B,B,B, x2 | %16
 [C,A,=B,][C,A,B,] [C,G,C][C,G,C] [C,G,][C,G,] | [D,F,][D,B,][C,A,][E,C][D,B,][C,=A,] | %18
 [B,,B,][B,,B,][B,,B,][B,,B,] [A,,B,,B,][A,,B,,B,] | %19
 [G,,B,,B,][G,B,]"^ritardando" [A,B,][A,B,][A,B,][A,B,] | [G,B,][G,B,][G,B,](A,B,C) | %21
"^animato" [A,,,A,,]6- | [A,,,A,,]3 A,F,G, | x2 =D2 EF | %24
"_*accidentals not present in IMSLP #348578" [_CF]2 [B,E] x3 | D,E,F, [G,,E,][A,,E,][B,,E,] | %26
 [C,E,] [C,A,]"^ritenuto"[D,A,][E,A,][F,A,][B,,A,] | A,4 F,G, | [A,,A,] A,A,A,[A,G][A,_G] | %29
 [A,F][A,E=G] [A,D=F]2 [A,_D_FG]2 |[K:treble]!ped! !arpeggio![A,CEAc] z z2 z2 | z4[K:bass] z E,- | %32
 [A,,E,]6- | !fermata![A,,E,]6!ped-up! |] %34
V:4
 x3 | F[EG][=DF] x3 | x6 | x2 A4 | x6 | F[EG][=DF] x3 | x6 | x6 | x6 | x6 | x6 | x3 [FA]2 [FA] | %12
 fA x4 | x6 | x6 | x6 | x6 | x6 | FFFF x2 | x6 | x6 | F[EG][=DF] x3 | x6 | x2 A4 | x6 | %25
 F[EG][=DF] x3 | x6 | x4 D2 | x6 | x6 | x6 | x6 | x6 | x6 |] %34
V:5
 x3 | x6 | x6 | A,_C [E,C]4 | E,3 A,B,_C | x6 | x6 | x6 | x6 | x6 | x6 | x2 x [E,F,]2 [E,F,] | x6 | %13
 C,3 x3 | B,,3 x3 | [D,F,][D,F,][D,F,][D,F,] [D,F,=B,][D,G,B,] | x6 | x6 | x6 | x6 | x6 | x6 | x6 | %23
 A,_C [E,C]4 | E,3 (A,B,"^*"!courtesy!=C) | x6 | x6 | E,4 E,2 | x6 | x6 |[K:treble] x6 | %31
 x4[K:bass] x2 | x6 | x6 |] %34
V:6
 x3 | x6 | x6 | x6 | x6 | x6 | x6 | x6 | x6 | x6 | x6 | x6 | x6 | x6 | x6 | x6 | x6 | x6 | x6 | %19
 x6 | x6 | x6 | x6 | x6 | x6 | x6 | x6 | z2 E,,4 | x6 | x6 |[K:treble] x6 | x4[K:bass] x2 | x6 | %33
 x6 |] %34

